source/img/icons/icon-twitter.svg

<svg width="24" height="24" viewBox="0 0 24 24" fill="none" xmlns="http://www.w3.org/2000/svg">
<path d="M22 5.79997C21.2483 6.12606 20.4534 6.34163 19.64 6.43997C20.4982 5.92729 21.1413 5.12075 21.45 4.16997C20.6436 4.65003 19.7608 4.98826 18.84 5.16997C18.2245 4.50254 17.405 4.05826 16.5098 3.90682C15.6147 3.75537 14.6945 3.90532 13.8938 4.33315C13.093 4.76099 12.4569 5.4425 12.0852 6.2708C11.7135 7.09911 11.6273 8.02736 11.84 8.90997C10.2094 8.82749 8.61444 8.40292 7.15865 7.66383C5.70287 6.92474 4.41885 5.88766 3.39 4.61997C3.02914 5.25013 2.83952 5.96379 2.84 6.68997C2.83872 7.36435 3.00422 8.02858 3.32176 8.62353C3.63929 9.21848 4.09902 9.72568 4.66 10.1C4.00798 10.0822 3.36989 9.90726 2.8 9.58997V9.63997C2.80489 10.5849 3.13599 11.4991 3.73731 12.2279C4.33864 12.9568 5.17326 13.4556 6.1 13.64C5.74326 13.7485 5.37287 13.8058 5 13.81C4.74189 13.807 4.48442 13.7835 4.23 13.74C4.49391 14.5528 5.00462 15.2631 5.69107 15.7721C6.37753 16.2811 7.20558 16.5635 8.06 16.58C6.6172 17.7152 4.83588 18.3348 3 18.34C2.66574 18.3411 2.33174 18.321 2 18.28C3.87443 19.4902 6.05881 20.1327 8.29 20.13C9.82969 20.146 11.3571 19.855 12.7831 19.274C14.2091 18.6931 15.505 17.8338 16.5952 16.7465C17.6854 15.6591 18.548 14.3654 19.1326 12.9409C19.7172 11.5164 20.012 9.98969 20 8.44997C20 8.27996 20 8.09997 20 7.91997C20.7847 7.33478 21.4615 6.61739 22 5.79997Z" fill="white"/>
</svg>

<svg width="24" height="24" fill="none" xmlns="http://www.w3.org/2000/svg"><path d="M22 5.8a8.49 8.49 0 01-2.36.64 4.13 4.13 0 001.81-2.27 8.21 8.21 0 01-2.61 1 4.1 4.1 0 00-7 3.74 11.64 11.64 0 01-8.45-4.29 4.16 4.16 0 00-.55 2.07 4.09 4.09 0 001.82 3.41 4.05 4.05 0 01-1.86-.51v.05a4.1 4.1 0 003.3 4 3.933 3.933 0 01-1.1.17 4.907 4.907 0 01-.77-.07 4.11 4.11 0 003.83 2.84A8.22 8.22 0 012 18.28a11.57 11.57 0 006.29 1.85A11.589 11.589 0 0020 8.45v-.53a8.43 8.43 0 002-2.12z" fill="#fff"/></svg>
